public/img/content-top.svg

<?xml version="1.0" encoding="UTF-8" standalone="no"?>
<svg
   width="428"
   height="310"
   viewBox="0 0 428 310"
   fill="none"
   version="1.1"
   id="svg2"
   xmlns="http://www.w3.org/2000/svg"
   xmlns:svg="http://www.w3.org/2000/svg">
  <defs
     id="defs2" />
  <path
     d="M 460.411,105.968 C 455.396,96.6626 448.182,87.8791 439.082,80 420.741,64.1017 392.986,52.5469 364.548,50.9416 332.98,49.1632 311.067,62.0313 285.692,71.2723 c -10.921,3.9759 -22.655,6.8946 -35.511,7.1741 -14.02,0.3008 -28.145,-2.2466 -41.657,-5.6708 C 181.33,65.8796 155.739,55.8162 127.421,51.8773 101.479,48.3047 75.2348,48.7247 50.5965,53.1069 -30.3041,67.5037 -102.575,139.396 -62.8581,200.167 c 20.2558,30.994 65.64527,54.609 113.2364,58.814 53.7037,4.75 102.7117,-13.134 156.3837,-8.469 27.005,2.348 52.509,10.891 77.846,18.287 24.039,7.017 49.811,13.762 75.263,11.715 47.304,-3.796 70.73,-35.713 86.535,-62.899 19.35,-33.292 33.863,-74.963 14.005,-111.647 z"
     fill="#D7AF9F"
     id="path1"
     style="fill:#7d9a9b;fill-opacity:1" />
  <path
     d="M -7.38458,70.7625 C -1.42041,60.3819 6.67656,50.906 16.5538,42.7472 36.4644,26.2819 65.2798,16.1885 93.7301,17.979 c 31.5809,1.9919 52.0219,20.0933 76.2869,34.3444 10.443,6.1318 21.806,11.116 34.562,13.1172 13.91,2.1774 28.225,0.9921 42.023,-1.3123 27.769,-4.6431 54.275,-13.2497 82.851,-14.2411 26.175,-0.866 52.23,3.0406 76.273,11.4359 78.943,27.5751 143.265,122.1909 97.383,189.0769 -23.399,34.112 -71.019,56.213 -118.79,55.017 -53.907,-1.345 -100.767,-28.911 -154.633,-30.352 -27.103,-0.724 -53.364,6.091 -79.339,11.568 -24.643,5.197 -50.9817,9.846 -76.0787,4.113 C 27.6234,280.102 7.67865,239.221 -5.18387,204.94 -20.9306,162.958 -30.987,111.673 -7.38458,70.7625 Z"
     fill="#D7AF9F"
     fill-opacity="0.4"
     id="path2"
     style="fill:#7d9a9b;fill-opacity:0.4" />
</svg>

<svg width="428" height="310" viewBox="0 0 428 310" fill="none" xmlns="http://www.w3.org/2000/svg">
<path d="M460.411 105.968C455.396 96.6626 448.182 87.8791 439.082 80C420.741 64.1017 392.986 52.5469 364.548 50.9416C332.98 49.1632 311.067 62.0313 285.692 71.2723C274.771 75.2482 263.037 78.1669 250.181 78.4464C236.161 78.7472 222.036 76.1998 208.524 72.7756C181.33 65.8796 155.739 55.8162 127.421 51.8773C101.479 48.3047 75.2348 48.7247 50.5965 53.1069C-30.3041 67.5037 -102.575 139.396 -62.8581 200.167C-42.6023 231.161 2.78717 254.776 50.3783 258.981C104.082 263.731 153.09 245.847 206.762 250.512C233.767 252.86 259.271 261.403 284.608 268.799C308.647 275.816 334.419 282.561 359.871 280.514C407.175 276.718 430.601 244.801 446.406 217.615C465.756 184.323 480.269 142.652 460.411 105.968Z" fill="#D7AF9F"/>
<path d="M-7.38458 70.7625C-1.42041 60.3819 6.67656 50.906 16.5538 42.7472C36.4644 26.2819 65.2798 16.1885 93.7301 17.979C125.311 19.9709 145.752 38.0723 170.017 52.3234C180.46 58.4552 191.823 63.4394 204.579 65.4406C218.489 67.618 232.804 66.4327 246.602 64.1283C274.371 59.4852 300.877 50.8786 329.453 49.8872C355.628 49.0212 381.683 52.9278 405.726 61.3231C484.669 88.8982 548.991 183.514 503.109 250.4C479.71 284.512 432.09 306.613 384.319 305.417C330.412 304.072 283.552 276.506 229.686 275.065C202.583 274.341 176.322 281.156 150.347 286.633C125.704 291.83 99.3653 296.479 74.2683 290.746C27.6234 280.102 7.67865 239.221 -5.18387 204.94C-20.9306 162.958 -30.987 111.673 -7.38458 70.7625Z" fill="#D7AF9F" fill-opacity="0.4"/>
</svg>
